!!!COM: Bach, Johann Sebastian
!!!OPR: Suite No. 1 in G Major
!!!OTL: Prelude
!!!OPS: BWV 1007
!!!ONM: 1
**kern
*staff1
*clefF4
*k[f#]
*G:
*M4/4
*met(c)
=1
16GGLL
16D
16B
16AJJ
16BLL
16D
16B
16DJJ
16GGLL
16D
16B
16AJJ
16BLL
16D
16B
16DJJ
=2
16GGLL
16E
16c
16BJJ
16cLL
16E
16c
16EJJ
16GGLL
16E
16c
16BJJ
16cLL
16E
16c
16EJJ
=3
16GGLL
16F#
16c
16BJJ
16cLL
16F#
16c
16F#JJ
16GGLL
16F#
16c
16BJJ
16cLL
16F#
16c
16F#JJ
=4
16GGLL
16G
16B
16AJJ
16BLL
16G
16B
16GJJ
16GGLL
16G
16B
16AJJ
16BLL
16G
16B
16F#JJ
=5
16GGLL
16E
16B
16AJJ
16BLL
16G
16F#
16GJJ
16ELL
16G
16F#
16GJJ
16BBLL
16D
16C#
16BBJJ
=6
16C#LL
16G
16A
16GJJ
16ALL
16G
16A
16GJJ
16C#LL
16G
16A
16GJJ
16ALL
16G
16A
16GJJ
=7
16F#LL
16A
16d
16c#JJ
16dLL
16A
16G
16AJJ
16F#LL
16A
16G
16AJJ
16DLL
16F#
16E
16DJJ
=8
16EELL
16BB
16G
16F#JJ
16GLL
16BB
16G
16BBJJ
16EELL
16BB
16G
16F#JJ
16GLL
16BB
16G
16BBJJ
=9
16EELL
16C#
16D
16EJJ
16DLL
16C#
16BB
16AAJJ
16GLL
16F#
16E
16dJJ
16c#LL
16B
16A
16GJJ
=10
16F#LL
16E
16D
16dJJ
16ALL
16d
16F#
16AJJ
16DLL
16E
16F#
16AJJ
16GLL
16F#
16E
16DJJ
=11
16G#LL
16D
16Fn
16EJJ
16FLL
16D
16G#
16DJJ
16BLL
16D
!!: POSSIBLLE PRINTING ERROR WITH ACC?
16Fn
16EJJ
16FLL
16D
16G#
16DJJ
=12
16CLL
16E
16A
16BJJ
16cLL
16A
16E
16DJJ
16CLL
16E
16A
16BJJ
16cLL
16A
16F#X
16EJJ
=13
16D#LL
16F#
16D#
16F#JJ
16ALL
16F#
16A
16F#JJ
16D#LL
16F#
16D#
16F#JJ
16ALL
16F#
16A
16F#JJ
=14
16GLL
16F#
16E
16GJJ
16F#LL
16G
16A
16F#JJ
16GLL
16F#
16E
16DJJ
16CLL
16BB
16AA
16GGJJ
=15
16FF#LL
16C
16D
16CJJ
16DLL
16C
16D
16CJJ
16FF#LL
16C
16D
16CJJ
16DLL
16C
16D
16CJJ
=16
16GGLL
16BB
16Fn
16EJJ
16FLL
16BB
16F
16BBJJ
16GGLL
16BB
16Fn
16EJJ
16FLL
16BB
16F
16BBJJ
=17
16GGLL
16C
16E
16DJJ
16ELL
16C
16E
16CJJ
16GGLL
16C
16E
16DJJ
16ELL
16C
16E
16CJJ
=18
16GGLL
16F#
16c
16BJJ
16cLL
16F#
16c
16F#JJ
16GGLL
16F#
16c
16BJJ
16cLL
16F#
16c
16F#JJ
=19
16GGLL
16D
16B
16AJJ
16BLL
16G
16F#
16EJJ
16DLL
16C
16BB
16AAJJ
16GGLL
16FF#
16EE
16DDJJ
=20
16CC#LL
16AA
16E
16F#JJ
16GLL
16E
16F#
16GJJ
16CC#LL
16AA
16E
16F#JJ
16GLL
16E
16F#
16GJJ
=21
16CnLL
16AA
16D
16EJJ
16F#LL
16D
16E
16F#JJ
16CLL
16AA
16D
16EJJ
16F#LL
16D
16E
16F#JJ
=22
16CCLL
16AA
16D
16F#JJ
16BLL
16c#J
[8d;J
16d]LL
16AA
16BB
16CnJJ
16DLL
16E
16F#
16GJJ
=23
16ALL
16F#
16D
16EJJ
16F#LL
16G
16A
16BJJ
16cLL
16A
16F#
16GJJ
16ALL
16B
16c
16dJJ
=24
16e-LL
16d
16c#
16dJJ
16dLL
16c
16B
16cJJ
16cLL
16A
16F#
16EnJJ
16DLL
16AA
16BB
16CJJ
=25
16DDLL
16AA
16D
16F#JJ
16ALL
16B
16c
16AJJ
16BLL
16G
16D
16CJJ
16BBLL
16GG
16AA
16BBJJ
=26
16DDLL
16GG
16BB
16DJJ
16GLL
16A
16B
16GJJ
16c#LL
16B-
16A
16B-JJ
16B-LL
16A
16G#
16AJJ
=27
16ALL
16Gn
16F#
16GJJ
16GLL
16E
16C#
16BBJJ
16AALL
16C#
16E
16GJJ
16ALL
16c#
16d
16c#JJ
=28
16dLL
16A
16F#
16EJJ
16F#LL
16A
16D
16F#JJ
16AALL
16D
16C#
16BBJJ
16AALL
16GG
16FF#
16EEJJ
=29
8DDL
16cnL
16BJJ
16ALL
16G
16F#
16EJJ
16DLL
16c
16B
16AJJ
16GLL
16F#
16E
16DJJ
=30
16CLL
16B
16A
16GJJ
16F#LL
16E
16D
16CJJ
16BBLL
16A
16G
16F#JJ
16ELL
16D
16C
16BJJ
=31
16AALL
16G
16F#
16EJJ
16F#LL
16A
16D
16AJJ
16ELL
16A
16F#
16AJJ
16GLL
16A
16E
16AJJ
=32
16F#LL
16A
16D
16AJJ
16GLL
16A
16E
16AJJ
16F#LL
16A
16D
16AJJ
16GLL
16A
16E
16AJJ
=33
16F#LL
16A
16D
16AJJ
16ELL
16A
16F#
16AJJ
*^
16GLL	16ryy
16ryy	16AL
16AJJ	16ryy
16ryy	16AJ
16BLL	16ryy
16ryy	16AL
16DJJ	16ryy
16ryy	16AJ
=34	=34
16ALL	16ryy
16ryy	16AL
16BJJ	16ryy
16ryy	16AJ
16cLL	16ryy
16ryy	16AL
16DJJ	16ryy
16ryy	16AJ
16BLL	16ryy
16ryy	16AL
16cJJ	16ryy
16ryy	16AJ
16dLL	16ryy
16ryy	16AL
16BJJ	16ryy
16ryy	16AJ
=35	=35
16cLL	16ryy
16ryy	16AL
16BJJ	16ryy
16ryy	16AJ
16cLL	16ryy
16ryy	16AL
16AJJ	16ryy
16ryy	16AJ
16BLL	16ryy
16ryy	16AL
16AJJ	16ryy
16ryy	16AJ
16BLL	16ryy
16ryy	16AL
16GJJ	16ryy
16ryy	16AJ
=36	=36
16ALL	16ryy
16ryy	16AL
16GJJ	16ryy
16ryy	16AJ
16ALL	16ryy
16ryy	16AL
16F#JJ	16ryy
16ryy	16AJ
*v	*v
16GLL
16A
16F#
16AJJ
16GLL
16A
16E
16AJJ
=37
16F#LL
16A
16D
16EJJ
16FnLL
16D
16F#
16DJJ
16GLL
16D
16G#
16DJJ
16ALL
16D
16B-
16DJJ
=38
16BnLL
16D
16c
16DJJ
16c#LL
16D
16d
16DJJ
16e-LL
16D
16e
16DJJ
16fnLL
16D
16f#
16DJJ
=39
16gLL
16B
16D
16BJJ
16gLL
16B
16g
16BJJ
16gLL
16B
16D
16BJJ
16gLL
16B
16g
16BJJ
=40
16gLL
16A
16D
16AJJ
16gLL
16A
16g
16AJJ
16gLL
16A
16D
16AJJ
16gLL
16A
16g
16AJJ
=41
16f#LL
16c
16D
16cJJ
16f#LL
16c
16f#
16cJJ
16f#LL
16c
16D
16cJJ
16f#LL
16c
16f#
16cJJ
=42
1GG 1B 1g;
==
*-
!!!filter: flipper -a
!!!ENC: Bryan Jacob Bell
!!!END: 18 December 2023
